dist/wifi.svg

<svg width="28" height="20" viewBox="0 0 28 20" fill="none" xmlns="http://www.w3.org/2000/svg">
<g clip-path="url(#clip0_205_1403)">
<path d="M28.0195 7.45612C26.357 5.16218 24.259 3.30453 21.8755 2.01591C19.492 0.727279 16.8817 0.0394799 14.2312 0.00164987C11.5807 -0.0361802 8.95539 0.576893 6.54285 1.79707C4.13031 3.01724 1.99008 4.81439 0.275083 7.06013L2.27663 8.94719C3.74153 7.02896 5.56964 5.49389 7.63035 4.45166C9.69107 3.40943 11.9335 2.88576 14.1975 2.91808C16.4615 2.95039 18.6911 3.53788 20.727 4.63859C22.7629 5.73929 24.555 7.32603 25.975 9.28543L28.0195 7.45612Z" fill="#FEFEFE"/>
<path d="M23.3651 11.9349C22.2399 10.3397 20.8112 9.04063 19.1814 8.13063C17.5515 7.22063 15.7608 6.72221 13.9373 6.67107C12.1138 6.61992 10.3027 7.0173 8.63361 7.83477C6.96451 8.65224 5.47869 9.86958 4.28251 11.3997L6.10798 13.1615C7.07044 11.9304 8.26594 10.951 9.60891 10.2932C10.9519 9.63547 12.4091 9.31574 13.8763 9.35689C15.3435 9.39804 16.7843 9.79907 18.0957 10.5313C19.4071 11.2635 20.5566 12.3087 21.4619 13.5922L23.3651 11.9349Z" fill="#FEFEFE"/>
<path d="M18.2426 15.2859C17.6855 14.6669 17.0241 14.1758 16.2961 13.8408C15.5681 13.5058 14.7879 13.3333 14 13.3333C13.2121 13.3333 12.4319 13.5058 11.7039 13.8408C10.9759 14.1758 10.3145 14.6669 9.75736 15.2859L14 20L18.2426 15.2859Z" fill="#FEFEFE"/>
</g>
<defs>
<clipPath id="clip0_205_1403">
<rect width="28" height="20" fill="white"/>
</clipPath>
</defs>
</svg>

<svg xmlns="http://www.w3.org/2000/svg" width="28" height="20" fill="none"><g fill="#FEFEFE" clip-path="url(#a)"><path d="M28.02 7.456c-1.663-2.294-3.761-4.151-6.145-5.44A16.54 16.54 0 0 0 14.231.002a16.5 16.5 0 0 0-7.688 1.795C4.13 3.017 1.99 4.814.275 7.06l2.002 1.887C3.742 7.03 5.57 5.494 7.63 4.452a14.1 14.1 0 0 1 6.568-1.534c2.264.032 4.493.62 6.529 1.72s3.828 2.688 5.248 4.647z"/><path d="M23.365 11.935C22.24 10.34 20.811 9.04 19.181 8.13a11.4 11.4 0 0 0-5.244-1.46 11.3 11.3 0 0 0-5.303 1.164c-1.67.817-3.155 2.035-4.351 3.565l1.825 1.761a10.1 10.1 0 0 1 3.5-2.868 9.1 9.1 0 0 1 4.268-.936 9.2 9.2 0 0 1 4.22 1.174 10.26 10.26 0 0 1 3.366 3.061z"/><path d="M18.243 15.286a6 6 0 0 0-1.947-1.445A5.5 5.5 0 0 0 14 13.333c-.788 0-1.568.173-2.296.508a6 6 0 0 0-1.947 1.445L14 20z"/></g><defs><clipPath id="a"><path fill="#fff" d="M0 0h28v20H0z"/></clipPath></defs></svg>
